packages/heroicons/src/prism/list.svg

<!-- Generated by IcoMoon.io -->
<svg version="1.1" xmlns="http://www.w3.org/2000/svg" width="16" height="16" viewBox="0 0 16 16">
<title>list</title>
<path fill="#4a4a4a" d="M6 1h10v2h-10v-2zM6 7h10v2h-10v-2zM6 13h10v2h-10v-2zM0 2c0-1.105 0.895-2 2-2s2 0.895 2 2c0 1.105-0.895 2-2 2s-2-0.895-2-2zM0 8c0-1.105 0.895-2 2-2s2 0.895 2 2c0 1.105-0.895 2-2 2s-2-0.895-2-2zM0 14c0-1.105 0.895-2 2-2s2 0.895 2 2c0 1.105-0.895 2-2 2s-2-0.895-2-2z"></path>
</svg>

<svg xmlns="http://www.w3.org/2000/svg" aria-hidden="true" fill="currentColor" viewBox="0 0 16 16">
  <path d="M6 1h10v2H6V1zm0 6h10v2H6V7zm0 6h10v2H6v-2zM0 2a2 2 0 113.999-.001A2 2 0 010 2zm0 6a2 2 0 113.999-.001A2 2 0 010 8zm0 6a2 2 0 113.999-.001A2 2 0 010 14z"/>
</svg>
